elements/rpg-character/lib/hat/knight.svg

<svg width="113" height="142" viewBox="0 0 113 142" fill="none" xmlns="http://www.w3.org/2000/svg">
<path d="M13 62V42H18V32H23V22H28V17H83V22H88V32H93V42H98V62H93V72H88V77H78V82H63V87H43V82H28V77H18V62H13Z" fill="#555766"/>
<path fill-rule="evenodd" clip-rule="evenodd" d="M8 42V62H13V77H18V82H28V87H43V92H63V87H78V82H88V77H93V72H98V62H103V42H98V32H93V22H88V17H83V12H28V17H23V22H18V32H13V42H8ZM13 42V62H18V77H28V82H43V87H63V82H78V77H88V72H93V62H98V42H93V32H88V22H83V17H28V22H23V32H18V42H13Z" fill="black"/>
<path d="M13 47V42H28V37H78V42H98V47H78V42H28V47L13 47Z" fill="#717489"/>
<rect x="43" y="17" width="20" height="5" fill="#717489"/>
<path d="M18 47V62H13V47H18Z" fill="#3E4159"/>
<path d="M28 77H18V67H23V72H28V77H43V82H63V77H78V72H88V57H93V47H98V62H93V72H88V77H78V82H63V87H43V82H28V77Z" fill="#3E4159"/>
<path d="M88 37V32H93V37H88Z" fill="#3E4159"/>
<path d="M83 22H88V27H83V22H73V17H83V22Z" fill="#3E4159"/>
<path d="M23 32H18V37H23V32Z" fill="#3E4159"/>
<path d="M23 27V22H28V27H23Z" fill="#3E4159"/>
<path d="M41.5 42H46.5V67H41.5V42Z" fill="black"/>
<path d="M32.5 42H37.5V62H32.5V42Z" fill="black"/>
<path d="M59.5 42H64.5V67H59.5V42Z" fill="black"/>
<path d="M68.5 42H73.5V62H68.5V42Z" fill="black"/>
<path d="M50.5 42H55.5V72H50.5V42Z" fill="black"/>
<path d="M43 22V4H45.5V2.5H48V1H58V2.5H60.5V4H63V22H58V27H48V22H43Z" fill="#AF4444"/>
<path d="M43 27V22H48V27H58V22H63V17H68V27H63V32H48V27H43Z" fill="#3E4159"/>
<path d="M45.5 2.5H48V1H58V2.5H60.5V4H63V22H58V2.5V1H48V2.5V7V22H43V4H45.5V2.5Z" fill="#8E2B2B"/>
<path d="M49.5 27V20M52.5 27V16.5M55.5 27V23M57.5 27V14.5M49 1V14.5M52 1V10.5M54.5 1V15.5M57 1V8" stroke="#A53636"/>
<path d="M58.5 2.5V22M47.5 2.5V22M45.5 22V15M44 4V13M61 4V14M60 22V17" stroke="#701616"/>
<path d="M50.5 9.5V20M52 15.5V12M54 16V23M55.5 21V17M56 9.5V14" stroke="#C75656"/>
</svg>

<svg xmlns="http://www.w3.org/2000/svg" fill="none" width="113" height="142" viewBox="0 0 113 142"><path d="M13 62V42h5V32h5V22h5v-5h55v5h5v10h5v10h5v20h-5v10h-5v5H78v5H63v5H43v-5H28v-5H18V62h-5Z" fill="#555766"/><path d="M8 42v20h5v15h5v5h10v5h15v5h20v-5h15v-5h10v-5h5v-5h5V62h5V42h-5V32h-5V22h-5v-5h-5v-5H28v5h-5v5h-5v10h-5v10H8Zm5 0v20h5v15h10v5h15v5h20v-5h15v-5h10v-5h5V62h5V42h-5V32h-5V22h-5v-5H28v5h-5v10h-5v10h-5Z" fill="#000" fill-rule="evenodd" clip-rule="evenodd"/><path d="M13 47v-5h15v-5h50v5h20v5H78v-5H28v5H13Zm30-30h20v5H43z" fill="#717489"/><path d="M18 47v15h-5V47h5Zm10 30H18V67h5v5h5v5h15v5h20v-5h15v-5h10V57h5V47h5v15h-5v10h-5v5H78v5H63v5H43v-5H28v-5Zm60-40v-5h5v5h-5Zm-5-15h5v5h-5v-5H73v-5h10v5ZM23 32h-5v5h5v-5Zm0-5v-5h5v5h-5Z" fill="#3E4159"/><path d="M41.5 42h5v25h-5V42Zm-9 0h5v20h-5V42Zm27 0h5v25h-5V42Zm9 0h5v20h-5V42Zm-18 0h5v30h-5V42Z" fill="#000"/><path d="M43 22V4h2.5V2.5H48V1h10v1.5h2.5V4H63v18h-5v5H48v-5h-5Z" fill="#AF4444"/><path d="M43 27v-5h5v5h10v-5h5v-5h5v10h-5v5H48v-5h-5Z" fill="#3E4159"/><path d="M45.5 2.5H48V1h10v1.5h2.5V4H63v18h-5V1H48v21h-5V4h2.5V2.5Z" fill="#8E2B2B"/><path d="M49.5 27v-7m3 7V16.5m3 10.5v-4m2 4V14.5M49 1v13.5M52 1v9.5M54.5 1v14.5M57 1v7" stroke="#A53636"/><path d="M58.5 2.5V22m-11-19.5V22m-2 0v-7M44 4v9m17-9v10m-1 8v-5" stroke="#701616"/><path d="M50.5 9.5V20m1.5-4.5V12m2 4v7m1.5-2v-4m.5-7.5V14" stroke="#C75656"/></svg>
